svg/activity-feed-o.svg

<?xml version="1.0" encoding="UTF-8"?>
<svg xmlns="http://www.w3.org/2000/svg" xmlns:xlink="http://www.w3.org/1999/xlink" width="32" height="32" viewBox="0 0 32 32">
<path fill-rule="nonzero" fill="rgb(0%, 0%, 0%)" fill-opacity="1" d="M 3.199219 2.558594 C 2.140625 2.566406 1.285156 3.421875 1.28125 4.480469 L 1.28125 27.519531 C 1.285156 28.578125 2.140625 29.433594 3.199219 29.441406 L 28.800781 29.441406 C 29.859375 29.433594 30.714844 28.578125 30.71875 27.519531 L 30.71875 4.480469 C 30.714844 3.421875 29.859375 2.566406 28.800781 2.558594 Z M 3.199219 3.839844 L 28.800781 3.839844 C 29.152344 3.839844 29.441406 4.125 29.441406 4.480469 L 29.441406 27.519531 C 29.441406 27.875 29.15625 28.160156 28.800781 28.160156 L 3.199219 28.160156 C 3.027344 28.160156 2.867188 28.09375 2.746094 27.972656 C 2.625 27.851562 2.558594 27.691406 2.558594 27.519531 L 2.558594 4.480469 C 2.558594 4.125 2.84375 3.839844 3.199219 3.839844 M 6.921875 8.960938 C 6.570312 8.992188 6.308594 9.304688 6.339844 9.660156 C 6.375 10.011719 6.683594 10.269531 7.039062 10.238281 L 24.960938 10.238281 C 25.191406 10.242188 25.40625 10.121094 25.523438 9.921875 C 25.636719 9.722656 25.636719 9.476562 25.523438 9.277344 C 25.40625 9.078125 25.191406 8.957031 24.960938 8.960938 Z M 6.921875 15.359375 C 6.578125 15.402344 6.328125 15.710938 6.359375 16.058594 C 6.390625 16.402344 6.691406 16.660156 7.039062 16.640625 L 24.960938 16.640625 C 25.191406 16.640625 25.40625 16.523438 25.523438 16.324219 C 25.636719 16.121094 25.636719 15.878906 25.523438 15.675781 C 25.402344 15.480469 25.191406 15.359375 24.960938 15.359375 Z M 6.921875 21.761719 C 6.570312 21.792969 6.308594 22.105469 6.34375 22.460938 C 6.375 22.8125 6.6875 23.070312 7.039062 23.039062 L 24.960938 23.039062 C 25.191406 23.042969 25.40625 22.921875 25.523438 22.722656 C 25.636719 22.523438 25.636719 22.277344 25.523438 22.078125 C 25.40625 21.878906 25.191406 21.757812 24.960938 21.761719 Z M 6.921875 21.761719 "/>
</svg>

<svg role="img" viewBox="0 0 32 32" height="32" width="32" xmlns="http://www.w3.org/2000/svg"><path d="M3.2 2.559A1.93 1.93 0 0 0 1.28 4.48v23.04a1.93 1.93 0 0 0 1.92 1.92h25.602a1.93 1.93 0 0 0 1.918-1.921V4.48a1.93 1.93 0 0 0-1.92-1.92Zm0 1.28h25.6a.642.642 0 0 1 .641.641v23.04c0 .355-.285.64-.64.64H3.199a.635.635 0 0 1-.453-.187.635.635 0 0 1-.187-.453V4.48c0-.355.285-.64.64-.64m3.723 5.12a.646.646 0 0 0-.582.7c.035.352.344.61.7.578h17.92a.64.64 0 0 0 .563-.316.654.654 0 0 0 0-.645.64.64 0 0 0-.562-.316Zm0 6.4a.643.643 0 0 0 .117 1.28h17.922a.645.645 0 0 0 .562-.316.661.661 0 0 0 0-.648.662.662 0 0 0-.562-.317Zm0 6.402a.64.64 0 1 0 .117 1.277h17.922a.64.64 0 0 0 .562-.316.654.654 0 0 0 0-.645.64.64 0 0 0-.562-.316Zm0 0"/></svg>
